frontend/public/Logos/dotnet.svg

<svg width="456" height="456" viewBox="0 0 456 456" fill="none" xmlns="http://www.w3.org/2000/svg">
<rect width="456" height="456" fill="#512BD4"/>
<path d="M81.2738 291.333C78.0496 291.333 75.309 290.259 73.052 288.11C70.795 285.906 69.6665 283.289 69.6665 280.259C69.6665 277.173 70.795 274.529 73.052 272.325C75.309 270.121 78.0496 269.019 81.2738 269.019C84.5518 269.019 87.3193 270.121 89.5763 272.325C91.887 274.529 93.0424 277.173 93.0424 280.259C93.0424 283.289 91.887 285.906 89.5763 288.11C87.3193 290.259 84.5518 291.333 81.2738 291.333Z" fill="white"/>
<path d="M210.167 289.515H189.209L133.994 202.406C132.597 200.202 131.441 197.915 130.528 195.546H130.044C130.474 198.081 130.689 203.508 130.689 211.827V289.515H112.149V171H134.477L187.839 256.043C190.096 259.57 191.547 261.994 192.192 263.316H192.514C191.977 260.176 191.708 254.859 191.708 247.365V171H210.167V289.515Z" fill="white"/>
<path d="M300.449 289.515H235.561V171H297.87V187.695H254.746V221.249H294.485V237.861H254.746V272.903H300.449V289.515Z" fill="white"/>
<path d="M392.667 187.695H359.457V289.515H340.272V187.695H307.143V171H392.667V187.695Z" fill="white"/>
</svg>

<svg xmlns="http://www.w3.org/2000/svg" width="456" height="456" fill="none"><path fill="#512BD4" d="M0 0h456v456H0z"/><path fill="#fff" d="M81.274 291.333q-4.836 0-8.222-3.223-3.386-3.306-3.386-7.851 0-4.629 3.386-7.934t8.222-3.306q4.917 0 8.302 3.306 3.466 3.305 3.466 7.934 0 4.545-3.466 7.851-3.385 3.223-8.302 3.223M210.167 289.515h-20.958l-55.215-87.109a39 39 0 0 1-3.466-6.86h-.484q.645 3.802.645 16.281v77.688h-18.54V171h22.328l53.362 85.043q3.385 5.29 4.353 7.273h.322q-.806-4.71-.806-15.951V171h18.459zM300.449 289.515h-64.888V171h62.309v16.695h-43.124v33.554h39.739v16.612h-39.739v35.042h45.703zM392.667 187.695h-33.21v101.82h-19.185v-101.82h-33.129V171h85.524z"/></svg>
